X:1
T:Title
%%score { ( 1 4 ) | ( 2 3 5 ) }
L:1/8
Q:1/4=100
M:4/4
K:D
V:1 treble nm="Grand Piano"
V:4 treble 
V:2 bass 
V:3 bass 
V:5 bass 
V:1
 [FA][FA][FA][FA] [=F^G]2 [FB]2 | [FA]4 F4 | DDDD E2 [CG]2 | [DF]6 z2 | %4
w: Ralph~Howard~Pendleton * * * * *||||
 [FA][FA][FA][FA] [=F^G]2 [FB]2 | [FA]4 F4 | EEEE ^G2 E2 | [CA]6 z2 | cccc B2 A2 | [FB]4 [FA]4 | %10
w: ||||||
 cccc B2 A2 | [Fd]2 cB [FA]4 | [FA][E^A][^DB][DF] [EG]2 [EB]2 | e2 z2 [Ec]2 z2 | ABcB c2 B2 | %15
w: |||||
 A6 z2 | [A,FA]4 [Fd]2 [FA]>B | [GA]2 [Gc]2 [Gc]4 | [A,GA]4 [Ge]2 [GA]>B | [FA]2 [Fd]2 [Fd]4 | %20
w: |||||
 [Fd][FA][FA][FA] [FB]2 [FA]2 | [DA]4 [DG]4 | [^DB][A,DF][A,DF][A,DF] [B,DG]2 [A,DF]2 | %23
w: |||
 [A,B,F]4 [G,B,E]4 | EFGA B2 B2 | A2 d2 B2 G2 | [DF][DF][DA][DA] [CF]2 [CE]2 | [A,D]6 z2 |] %28
w: |||||
V:2
 [D,A,][D,A,][D,A,][D,A,] [D,A,]2 [D,^G,]2 | [D,A,]4 [D,A,D]4 | %2
 [F,A,][F,A,][F,A,][F,A,] [E,A,C]2 [A,,A,]2 | [D,A,]6 z2 | %4
 [D,A,][D,A,][D,A,][D,A,] [D,A,]2 [D,^G,]2 | [D,A,]4 [D,A,D]4 | %6
 [E,^G,D][E,G,D][E,G,D][E,G,D] [E,B,D]2 [E,G,D]2 | [A,,A,]6 z2 | %8
 [A,EG][A,EG][A,EG][A,EG] [A,DG]2 [A,CG]2 | [D,D]4 [D,D]4 | %10
 [A,EG][A,EG][A,EG][A,EG] [A,DG]2 [A,CG]2 | A,2 [^G,=F]2 [D,A,]4 | %12
 [D,A,][C,F,][B,,F,][B,,B,] [E,B,]2 [E,G,]2 | z2[K:treble] d2 z2 D2 | %14
 [A,CG][A,DG][A,EG][A,DG] [A,EG]2 [A,DG]2 | [A,CG]6 z2 | z4 A,4 | z4 A,4 | z4 A,4 | %19
 D,2 A,,2 [D,A,]4 | [D,=C][D,C][D,C][D,C] [D,D]2 [D,C]2 | [G,=C]4 [G,B,]4 | %22
 [B,,A,]B,,B,,B,, B,,2 B,,2 | F,4 E,4 | E,F,G,A, B,2 [G,A,C]2 | [F,A,D]4 [G,B,D]4 | %26
 [A,,A,][A,,A,][A,,F,][A,,F,] [A,,A,]2 [A,,G,]2 | [D,F,]6 z2 |] %28
V:3
 x8 | x8 | x8 | x8 | x8 | x8 | x8 | x8 | x8 | x8 | x8 | D,4 z4 | x8 | [E,B,]4[K:treble] E,4 | x8 | %15
 x8 | D,2 A,,2 D,2 z z/ F/ | E,2 A,,2 E,2 A,,2 | C,2 A,,2 C,2 z z/ G/ | x8 | x8 | x8 | x8 | x8 | %24
 x8 | x8 | x8 | x8 |] %28
V:4
 x8 | x8 | x8 | x8 | x8 | x8 | x8 | x8 | x8 | x8 | x8 | x8 | x8 | G4 G2- [GB]2 | x8 | x8 | x8 | %17
 A,4 z4 | x8 | A,4 z4 | x8 | x8 | x8 | x8 | x8 | x8 | x8 | x8 |] %28
V:5
 x8 | x8 | x8 | x8 | x8 | x8 | x8 | x8 | x8 | x8 | x8 | x8 | x8 | x2[K:treble] x6 | x8 | x8 | %16
 z4 z2 A,,2 | x8 | z4 z2 A,,2 | x8 | x8 | x8 | x8 | x8 | x8 | x8 | x8 | x8 |] %28

